X: 33574
T: Rakes Of Kildare, The
R: jig
M: 6/8
K: Amajor
|:EAA AGA|Bcd e2 f|gfg ege|dBA G2 A/G/|
EAA AGA|Bcd e2 f|gfg edB|ABA A3:|
|:aea aea|aga b2 a|=gdg gdg|=gdg g2 f/^g/|
aea aea|aga b2 a|efe dcB|cAA A3:|

